X: 17
T: 'Round the Horn (\251Jay Ungar; R-25)
I: Round the Horn	R-25	G	reel
M: C|
R: reel
K: G
(3DEF| "G"G2GA BAGA| Bd2e d4| "C"cdef e2g2| "D"a6 ga|
       "Em"b2b2 "D"agfa| "C"gfed "G"BAGB| "Am"A2d2 BAG2|1 "Em"E4- "D7"E2 :|2 "Em"E8 |]
|:"C"e3f e2d2| "G"B6 B2| "Am"A3A G2A2| "Bm"B2 d6|
"C"g3a g2e2| "G"dedc BAGB| "Am"A2d2 BAG2|1 "Em"E8 :|2 "Em"E4- "D7"E2 |]

